X:572
T:Tailor's Thimble, The
R:reel
H:Also in Ador, #585. 
Z:id:hn-reel-572
M:C|
K:Edor
GE~E2 E2AF|GE~E2 AFDF|GE~E2 EFGA|1 BcdB AFDF:|2 BcdB ABde||
|:f2df efde|fedB ABde|f2df efdA|1 BcdB ABde:|2 BcdB AFDF||
